!!!OTL: Das Schloss in Oesterreich
!!!ARE: Europa, Mitteleuropa, Deutschland
!!!SCT: A0027A
!!!YEM: Copyright 1995, estate of Helmut Schaffrath.
**kern
*ICvox
*Ivox
!! Mixed meters:  6/2; 4/2
*M4/2
*k[b-]
*F:
{2f
2f
2g
=1
1a
2b-
1cc
2a
=2
1f
2r}
{2f
2a
2b-
=3
1cc
2f
1f
4e
4d
=4
2e
2f
1d
1c}
=5
{2r
2cc
2cc
2cc
=6
*M6/2
2.dd
4cc
2dd
1cc
2b-
=7
*M4/2
1a
2r}
{2dd
=8
2cc
2g
2a
2f
=9
*M6/2
2e
2f
2g
2a
4g
4f
2g
=10
1.f}
==
!!!AGN: Romanze, Ballade, Lied
!! Melodie bei Forster 1540 II. No. 77
!!!ONB: ESAC (Essen Associative Code) Database: ALTDEU
!!!AMT: irregular
!!!AIN: vox
!!!EED: Helmut Schaffrath
!!!EEV: 1.0
*-
